X:1
T:Introduction and Rondo
T:Introduction and Rondo
T:Op. 2 No. 3
T:Dinioso Aguado (1784 - 1849)
C:Dinioso Aguado
%%score ( 1 2 3 )
L:1/8
Q:1/4=63
M:4/4
K:C
V:1 treble-8 nm="Classical Guitar" snm="Guit."
V:2 treble-8 
V:3 treble-8 
V:1
"^Andante""^V" a/ | a4 e7/2 c'/ | c'4 a7/2 e'/ | [ae']2 f'>e' (3((e'd')c') (3((c'b)a) | %4
"^VII" a3 (a/4^g/4)b/4a/4 g2 z3/2 e/ | e4 B7/2 ^g/ | ^g4 e2 z3/2 b/ | %7
 [eb]2 ^g z3/4 d'/4 [gd']2 b z3/4 f'/4 | [d^gf']4 (3((f'e')d') (3((d'c')b) | %9
 [Acc']2 [^Gdb]2 [Aca]2 z2 | [Ac][Ac][Ac][Ac] [Ac][Ac][Ac][Ac] | %11
 [Ac][Ac][Ac][Ac] [Ac][Ac][Ac][Ac] | [Ac][Ac][Ac][Ac] [Ac][Ac][Ac][Ac] | %13
 [Bd][Bd][Bd][Bd] [Bd][Bd][Bd][Bd] | [Bd][Bd][Bd][Bd] [Bd][Bd][Bd][Bd] | %15
 [^GB][GB][GB][GB] [GB][GB][GB][GB] | [Ac][Ac][Ac][Ac] [Ac][Ac][Ac][Ac] | %17
 [Ac][Ac][Ac][Ac] [Ac][Ac][Ac][Ac] | [Ac][Ac][Ac][Ac] [Ac][Ac][Ac][Ac] | %19
 [=GB]3/2 [^FA]/ [GB]/[Ac]/[Bd]/[ce]/ [d=f]2 [df]2 | %20
 [df]3/2 [^FA]/ [GB]/[Ac]/[Bd]/[ce]/ [d=f]2 [df]2 | %21
 [df]>[^ce] [df]/[ce]/[df]/[ce]/ [df]/[=ce]/[Bd]/[Ac]/ [GB]/[=FA]/[EG]/[DF]/ | %22
 z3/2 =g/ g2- g^c de | d>^c d/e/f/g/ (3((^ga)e) (3(fAd) | d>=c c2 (Bc) e>d | c2 z2 z2 e>e | %26
 e>B B3 B e>d | d>c{/Bcd} c2 z2 e>a | a>^g g4 a>b |"^V" b>a a2 z2 c'>b | %30
{/b} a2 [Ac]2 [Ac]2{/ab} c'>b |{/b} a2 [Ac]2 [Ac]2{/b} a/^g/a/b/ |"^V" c'2 c'>c' c'2 b>a | %33
 ^g2 z2 z2{/efe} f>e | [d^g]2{/efe} f>e [ca]2{/efe} f>e | [B^g]4 z3/2 E/ F>E | ^G4 A4 | %37
 !fermata![B,^G]2 !arpeggio!!fermata![EGBe]2 z4 |][M:2/4][Q:1/4=96]"^Allegro moderato" E/>A/ |: %39
 c(c/d/) B(B/c/) | A2 A,/E/A/c/ | ee (g/f/)e/d/ | [Ac]2 [^GB]e/=g/ | (g/f/)e/f/ (f/e/)^d/e/ | %44
"^II" (e/=d/)^c/d/ (d/=c/)B/c/ | (c/B/)d/B/ A/c/B/^G/ |1 A3 E/>A/ :|2 A3 z |: %48
 [^GB]>!-(!c !-)!ed/B/ |"^V" !arpeggio!Ac/e/ (a/c'/)b/a/ | (a/^g/)b/a/ g/f/e/d/ | (d>^c) =ce | %52
"^V" (f/e/)f/a/"^VII" (^g/^f/)g/b/ | (a/^g/)a/b/ !-(!a!-)!{/c'}c'- |"^X" c'b"^VII" (^g/a/)b/g/ | %55
 [ca][ec'] [ca] z :| [ae']2 (d'/c'/)(b/c'/) | z [cea]2 e | [ca][ca]/[B^g]/ [ca]/[Bg]/[ca]/[^c^a]/ | %59
 [db]>[=c=a] [B^g] z | f'>e' d'/(!-(!c'/!-)!b/)!-(!a/!-)!{^g} |"^IV" ^g b2 a | %62
 [e^g]"^I"[=d=f][ce]d | (d>^c) =c z | z ac'e' |"^IX" e'2 z/ d'/b/^g/ | z ac'e' | %67
"^IX" e'2 z/ d'/b/^g/ | a2 z a |"^X" bbbb |"^VIII" c'=g/g/ d'g/g/ | e'>e' (d'/c'/)b/c'/ | %72
 a (f'/e'/) d'/c'/b/a/ | g (e'/d'/) c'/b/a/g/ |"^VII" aa/d'/ g/c'/"^VII"f/b/ | c'2 z2 | %76
!f! e'2 g'2 | ^c'3!p!"^X" a | d'2 e'2 | f'>e' d' z |!f! ^f'2 a'2 | ^d'3 !-(!b!-)!{e'} | %82
"^IX" e'e' (e'/^d'/)^c'/d'/ | e'2 z (e'/f'/) | (!-(!f'/!-)!^g/)g gg | %85
"^V"{/=b} a/^g/a/b/ =c'/(=d'/e'/)f'/ | (!-(!f'/!-)!^g/)g gg |"^V"{/b} a/^g/a/b/ c'/(c'/b/)a/ | %88
 a2 z/ a/=g/f/ | f2 z/ f/e/^d/ | ^d[Ad][Ad][Ad] | %91
!f! (3([^Ge]/E/G/) (3(B/e/^g/) (3(b/g/e/) (3(d'/b/e/) | %92
 (3(f'/e'/)d'/(3c'/b/a/ (3^g/f/e/(3(=d/c/)B/ |"^V"(3x/A/c/(3e/a/b/ (3(c'/b/)a/(3(^g/a/)e/ | %94
 (3c/A/e/ (3e/A/e/ (3d/^G/e/ (3c/A/e/ | (3[^GB]/E/G/ (3B/e/^g/ (3(b/g/)e/ (3(d'/b/)e/ | %96
 (3(f'/e'/)d'/(3c'/b/a/ (3^g/f/e/(3(d/c/)B/ |"^V"(3x/A/c/(3e/a/b/ (3(c'/b/)a/(3(^g/a/)e/ | %98
 (3c/A/e/ (3e/A/e/ (3d/^G/e/ (3c/A/e/ | (3[^GB]/E/G/ (3B/e/^g/ (3(b/g/)e/ (3(d'/b/)e/ | %100
 (3(f'/e'/)d'/(3c'/b/a/ (3^g/f/e/(3(d/c/)B/ |"^V" (3A/c/e/(3(a/c'/)c'/ b2 | %102
 (3A/c/e/(3(a/c'/)c'/ b2 |"^I" (3F/A/c/(3(f/a/)a/ g2 | (3F/A/c/(3(f/a/)a/ g2 | %105
 (3F/A/c/(3(f/g/)a/ (3(a/g/)f/(3e/d/c/ | (3(=B/c/)d/ (3(c/B/)A/ (3(=G/A/)G/ (3(F/E/)D/ | %107
!f! (3C/G/c/(3(e/g/)g/ (3B,/G/B/(3(f/g/)g/ |!f! (3C/G/c/(3(e/g/)g/ (3B,/G/B/(3(f/g/)g/ | %109
 (3C/G/c/(3(e/g/)g/"^II" (3^C/A/^c/(3(g/a/)a/ | (3D/A/d/(3(f/a/)a/"^II" (3^C/A/^c/(3(g/a/)a/ | %111
 (3D/A/d/(3(f/a/)a/"^IV" (3^D/B/^d/(3(a/b/)b/ | (3E/B/e/(3(^g/b/)b/ (3^D/B/^d/(3(a/b/)b/ | %113
 ^g (3(e/^f/)g/ (3(g/a/)b/ (3(b/c'/)d'/ | d'"^VII"[^gd'][ac'][ac'] | %115
 [^gb] (3((e/^f/)g/) (3((g/a/)b/) (3((b/c'/)d'/) | [^gd'] (3(g/a/)b/ (3(b/c'/)d'/ (3(d'/e'/)f'/ | %117
 f'2 !fermata!z2 | f'(e'/d'/) e'"^X"e' |"^IX" d'(e'/d'/) c'!f!c' | [d=fb][dfb] [Bd^g][Bdg] | %121
!p! [ca]3 [ca] | [B^g]>[ca] [db][db] |"^V" [ca] [ec']2 [db]/[ca]/ |"^IV" [B^g][Bg] [ca][db] | %125
 [db] [ca]2 [ca] | [B^g]>[ca] [db][db] |"^V" [ca] [ec']2 [db]/[ca]/ |"^IV" [B^g][Bg] [ca][db] | %129
!ff!"^V" [ca]/[ca]/[ca]/[ca]/ [ca]/[ca]/[ca]/[ca]/ | [ca]/[ca]/[ca]/[ca]/ [ca]/[ca]/[ca]/[ca]/ | %131
 [ca]/[ca]/[ca]/[ca]/ [ca]/[ca]/[ca]/[ca]/ | [ca]/[ca]/[ca]/[ca]/ [ca]/[ca]/[ca]/[ca]/ | %133
 a3 (3((c'/b/)a/) | (3((c'/b/)a/)(3((c'/b/)a/) (3((c'/b/)a/)(3((c'/b/)a/) | %135
 [B^g]2 z/!p! f'/f'/f'/ |!p! (f'/d'/).d'/.d'/ (d'/b/).b/.b/ | (b/^g/).g/.g/ (g/f/)(f/d/) | %138
 (d/B/)(B/^G/) (G/F/)(F/=D/) | (3(D/F/^G/) (3(B/G/F/) (3(D/F/G/) (3(B/G/F/) | %140
 (3D/F/^G/ (3B/G/F/ (3D/F/G/ (3B/G/F/ | (3C/E/A/ (3c/A/E/ (3C/E/A/ (3c/A/E/ | %142
 (3B,/E/^G/ (3d/G/E/ (3B,/E/G/ (3d/G/E/ | (3A,/E/A/ (3c/A/E/ (3G,/_B/^c/ (3e/c/B/ | %144
 (3F,/A/d/ (3f/d/A/ (3E,/A/^c/ (3g/c/A/ | (3D/A/d/ (3f/d/A/ (3D/A/d/ (3f/d/A/ | %146
!f! (3^D/=c/^f/ (3a/f/c/ (3D/c/f/ (3a/f/c/ | (3E/=B/e/ (3^g/e/B/ (3E/B/e/ (3a/e/B/ | %148
!ff! (3E/B/e/ (3^g/e/B/ (3E/c/e/ (3a/e/B/ | (3E/B/e/ (3^g/e/B/ (3E/c/e/ (3a/e/B/ | %150
 !fermata![e^g]4[Q:1/4=120] e/^d/^f/e/ g/f/a/g/ b/a/c'/b/ d'/c'/e'/d'/ f'/e'/d'/e'/ d'/c'/b/c'/ b/a/g/a/ =g/=f/e/f/ e/d/f/d/ c/B/d/B/ A/^G/B/G/ !fermata!E2 | %151
[Q:1/4=96] E/^D/^F/E/ ^G/F/A/G/ B/A/c/B/ =d/c/e/d/ f/e/^d/e/ e/=d/^c/d/ d/=c/B/c/ c/B/^A/B/ | %152
!f! A2 A,/E/A/c/ | ee (g/f/)e/d/ | [Ac]2 [^GB]e/=g/ | (g/f/)e/f/ (f/e/)^d/e/ | %156
"^II" (e/d/)^c/d/ (d/=c/)B/c/ | (c/B/)d/B/ A/c/B/^G/ | A2 z2 | [^GB]>(!-(!c !-)!e)d/B/ | %160
"^V" Ac/e/ (a/c'/)b/a/ | (a/^g/)b/a/ g/f/e/d/ | (d>^c) =ce | %163
"^V"{/g} f/e/f/a/"^VII"{/a} ^g/^f/g/b/ |"^VIII"{/b} a/^g/a/b/ ac'- | %165
"^X" c'b"^VII" (^g/!-(!a/)!-)!{/b}b/g/ | [ca][ec'] [ca] z |!f!"^VIII" [ce=g]2"^X" [dfb]2 | %168
"^VIII" c'2 (3(z/ (g/a/))(3(b/(c'/d'/)) | e'2 z/ e'/(d'/c'/) | f'2 z/ f'/(d'/b/) | gg"^VII"^f=f | %172
"^VIII" e/g/(c'/e'/) (d'/c'/)b/a/ | (a/g/)(^f/g/)"^VII" f/g/=f/g/ | %174
"^VIII" e/g/(c'/e'/) (d'/c'/)b/a/ | (a/g/)(^f/g/)"^VII" (f/g/)=f/g/ | %176
"^VIII" (3(c/e/g/)(3((c'/e'/)e'/) (3(c/e/e'/)"^VII" (3(B/d/d'/) | %177
"^V" (3A/c/e/(3(a/c'/)c'/ (3A/c/a/ (3G/B/b/ | (3F/A/c/(3(f/a/)a/ (3F/A/f/ (3E/G/g/ | %179
 (3(D/G/)B/(3(d/f/)f/"^III" (3D/F/d/"^II" (3C/E/e/ | d2 z B |!f! cc de | d2 z B | cc de | %184
"^III" z (a/g/) z (a/g/) | z/{/a} g/^f/g/ z/{/a} g/f/g/ | z [GBd][GBd] z | e2 (e/f/)(^f/g/) | %188
 c2 (d/c/)(B/c/) | dde=f | g>e c z |"^V" a2 gg | ^f2"^III" =ff | !-(!e!-)!{/c'}c' !-(!d!-)!{/a}a | %194
 c2{/dc} (3(B/(G/A/))(3((B/c/)d/) | e2 (e/f/)(^f/g/) | c2 (d/c/)(B/c/) | ddef | g>e c z | %199
"^V" a2 gg |"^VII" ^fd' bg' |"^VIII" c'a gb | %202
"^VII" (3(c/e/g/)(3((c'/e'/)(d'/) (3(c'/)b/c'/)(3(g/e/c/) | (3B/f/g/ (3d/f/g/ (3B/f/g/ (3G/f/g/ | %204
"^V" (3A/c/e/(3(a/c'/)(b/ (3a/)^g/a/(3e/c/A/ | (3^G/d/e/ (3B/d/e/ (3G/d/e/ (3E/d/e/ | %206
"^I" (3F/A/c/(3(f/a/)(g/ (3f/)e/f/(3c/A/F/ | (3E/_B/c/ (3G/B/c/ (3E/B/c/ (3C/B/c/ | %208
"^I" (3F/A/c/(3(f/a/)a/ (3D/A/c/(3(^f/a/)a/ |"^III" (3G/=B/d/(3(g/b/)b/ (3E/B/d/(3(^g/b/)b/ | %210
"^V" (3A/c/e/(3(a/c'/)c'/ (3^G/d/f/(3(b/d'/)d'/ | (3A/e/=g/(3(^c'/e'/)e'/ (3^c/g/_b/(3(e'/g'/)g'/ | %212
"^X" (3d/f/a/(3d'/f'/(e'/ (3d'/)^c'/d'/(3a/f/d/ | (3^G/d/f/(3(=b/d'/)d'/ (3B/f/_a/(3(d'/f'/)f'/ | %214
"^VIII" (3c/_e/g/ (3(=c'/_e'/)(d'/ (3c'/)b/c'/ (3g/e/c/ | %215
"^IV" (3_A/c/_e/ (3_a/e/c/ (3A/c/e/ (3G/c/e/ | %216
"^VIII"(3x/c/_e/(3=a/c'/d'/ (3(_e'/d'/)c'/(3(e'/d'/)c'/ | %217
"^III" (3G/B/d/ (3g/d/B/ (3G/B/d/ (3F/B/d/ |"^VI"(3x/_B/_d/(3g/_b/c'/ (3(_d'/c'/)b/(3(d'/c'/)b/ | %219
"^I" (3F/=A/c/ (3f/c/A/ (3F/A/c/ (3E/A/c/ |"^V" (3(D/F/)A/(3=d/f/a/ (3(D/F/)A/(3d/f/a/ | %221
 (3(D/^F/)A/(3d/^f/g/ (3(a/g/)f/(3e/d/c/ | =B2 z/ [f=b]/[fb]/[fb]/ | [=ec']2 z/ [c^f]/[cf]/[cf]/ | %224
 [GBg]2 z/ [FB]/[FB]/[FB]/ | [Ec]2 z/ [C^F]/[CF]/[CF]/ | [B,G][C^F] [B,G][CF] | %227
 [B,G]2 (g/^f/)(g/(a/){g)} | g [=FB][FB][FB] | (dc) (e/^d/)(e/f/) |!f! e [D^G][DG][DG] | %231
 BA z/{/B} A/(^G/A/) |"^I" c2 z/{/B} A/(^G/A/) | c2 z/{/B} A/(^G/A/) |"^I" c2 BA | %235
 (3(E,/E/^G/)(3(B/G/e/) (3(E,/E/B/)(3(d/B/^g/) | (3E,/E/A/(3c/A/a/ (3E,/^D/A/(3c/A/^f/ | %237
 (3E,/E/^G/(3B/G/e/ (3E,/E/B/(3d/B/^g/ | (3E,/E/A/(3c/A/a/ (3E,/^D/A/(3c/A/^f/ | %239
 z2 [^GBe](e/4^f/4)(^g/4a/4) | b3 (^g/4a/4)(b/4c'/4) | d'3 (b/4c'/4)(d'/4e'/4) | f'2 f'e' | %243
 (d'/e'/)(f'/e'/) (d'/e'/)(c'/d'/) | (b/c'/)(d'/c'/) (b/c'/)(a/b/) | (^g/a/^a/b/) =a/g/f/e/ | %246
 d/f/B/d/ ^G/B/F/G/ | (D/F/)B,/D/ ^G,/B,/F,/G,/ | (3(E,B,E) (3(^GBG) | (3eB^g (3ebg | %250
 (3d'(E^F) (3(^GA)B |!f!{/d} c/B/c/A/{/c} B/A/B/^G/ | A2 A,/E/A/c/ | ee (=g/f/)e/d/ | %254
 [Ac]2 [^GB]e |{/g} f/e/f/d/{/f} e/d/e/c/ |"^II"{/e} d/^c/d/B/{/d} =c/B/c/A/ | %257
 (c/B/)d/B/ A/c/B/^G/ | A2 z2 | [^GB]>(!-(!c !-)!e)d/B/ |"^V" A,/A/c/e/ (a/c'/)b/a/ | %261
 ^g/a/^a/b/ (g/e/)f/d/ | d>^c =ce |"^V"{/g} f/e/f/a/"^VII"{/a} ^g/^f/g/b/ | %264
"^VIII"{/b} a/^g/a/b/"^X" ac'- | c'b"^VII" (^g/^f/)(g/{/b-)}b/ | [ca][ec'] [ca]e | %267
"^VII"{/g} f/e/f/a/"^VII"{/a} ^g/^f/g/b/ |"^VIII"{/b} a/^g/a/b/"^X" ac'- | c'b/a/ bd'- | %270
"^VIII" d'c'/b/ c'e'- |"^IX" e'^d'/^c'/ d'd' |"^VI" =d'2"^V" c'2 | [dfc'][dfb]"^V" [cea][Bd^g] | %274
 [ca]3 [ca] | [B^g]>[ca] [db][db] |"^V" [ca] [ec']2 [db]/[ca]/ |"^IV" [B^g][Bg]"^V" [ca][db] | %278
 [ca]3 [d^g] | [ca]3 [d^g] | [ca]2 [ca]2 | [ca]2 z2 |] %282
V:2
 z/ | [Ac]6 z2 | [Ac]6 z2 | c4 z2 z2 | [EB]6 z2 | [E^G]6 z2 | [E^G]6 z2 | E,4 E,4 | [^GB]4 z2 z2 | %9
 A,2 E,2 A,2 z2 | A,4 E,4 | C4 A,4 | E4- EF/E/ D/C/B,/A,/ | ^G,4 E,4 | B,4 ^G,4 | %15
 D4- DE/D/ C/B,/A,/^G,/ | A,4 E,7/2 C/ | C4 A,7/2 E/ | E2 E2- EF/E/ D/C/B,/A,/ | =G,2 z2 z G,B,D | %20
 G3/2 z/ z2 z G,B,D | G3/2 z/ z2 z2 z2 | [CE]4 [B,EG]4 | [A,F]4 z2 z2 | [G,E]4 [G,F]4 | EGEG EGEG | %26
 E^GEG EGEG | EA EAEA c z | BdBd BdBd | cece c2 z2 | z2 F>E F2 z2 | z2 E>^D E2 z2 | %32
 z [Ac][Ac][Ac] z [Ac][Ac][Ac] | [E^GB]2 E,2 E,2 E,2 | E,2 E,2 E,2 E,2 | E,2 E,2 E,2 E,2 | %36
 D>E F>E C>E F>E | !fermata!E,2 !fermata![E,B,]2 z4 |][M:2/4] z |: A,2 E,2 | A,/E/C/E/ A,2 | %41
 C2 D2 | EE, E z | D2 C2 | B,2 A,2 | D2 EE, |1 A,/E/C/E/ A, z :|2 A,/E/C/E/ A, z |: E,4 | A,2 z2 | %50
 E,4 | A,2 z2 | D2 E2 | F2 z2 | [Ddf]2 [EBd]E, | A,3 z :| !arpeggio![A,ce]2 z2 | A,2 A,2 | A,2 z2 | %59
 E,3 z | [d^gb]3/2 z/ z2 | [Be]2 [c^d]2 | B^GA[EG] | [A,A]3 z | z/ e/c/e/ c/e/c/e/ | %65
 z/ e/d/e/ d/e/d/e/ | z/ e/c/e/ c/e/c/e/ | z/ e/d/e/ d/e/d/e/ | z/ e/c/e/ c/e/c/e/ | %69
 z/ f/d/f/ d/f/d/f/ | [ce]2 [Bf]2 | [ce]2 z2 | [Ff] z z2 | [Ce] z z2 | [Ff][Ff] [Ge][Gd] | %75
 [ce]2 z2 | [^cg_b]4 | [Aeg]3 z | fa ga | fa f z | [^dac']4 | [B^fa]3 z | [e^g]2 [^fa]2 | %83
 [e^g]2 z2 | z [Ed] [Ed][Ed] | [A=c]2 z2 | z [Ed][Ed][Ed] | [Ac]2 z2 | z [FAc][FAc] z | %89
 z [FAc][FAc] z | z F,F,F, | E,4 | z4 | A,4 | A,C B,A, | E,4 | z4 | A,4 | A,C B,A, | E,4 | z4 | %101
 A z ^GE | A z ^GE | F z EC | F z EC | F z z2 | z4 | C2 B,D | C2 B,D | C2 ^CE | D2 ^CE | D2 ^D^F | %112
 E z ^D^F | E z z2 | z EA^d | e z z2 | E z z2 | [^Gdb]2 !fermata!z2 | [db] z z [ca] | %119
 [Be]2 z [Ae] | =DB, EE, | A,/A,/A,/A,/ A,/A,/A,/A,/ | A,/A,/A,/A,/ A,/A,/A,/A,/ | %123
 A,/A,/A,/A,/ A,/A,/A,/A,/ | A,/A,/A,/A,/ A,/A,/A,/A,/ | A,/A,/A,/A,/ A,/A,/A,/A,/ | %126
 A,/A,/A,/A,/ A,/A,/A,/A,/ | A,/A,/A,/A,/ A,/A,/A,/A,/ | A,/A,/A,/A,/ A,/A,/A,/A,/ | %129
 A,2 z/ A,/B,/C/ | D>E FE | ^DE z/ A,/B,/C/ | =D>E FE | [^Dc]4- | [Dc]4 | E2 z2 | z4 | z4 | z4 | %139
 D2 DD | D2 DD | C2 CC | B,2 B,B, | A,2 G,2 | F,2 E,E | D2 DD | ^D2 DD | E2 E2 | EE, EE, | %149
 EE, EE, | !fermata![EB]4 x24 | x16 | z/ E/C/E/ A,2 | C2 D2 | EE, E z | D2 C2 | B,2 A,2 | D2 EE, | %158
 A,/E/C/E/ A,2 | E,4 | A,2 z2 | E,4 | A,2 z2 | D2 E2 | F z z2 | [Dd=f]2 [EBd]E, | A,2 A, z | %167
 C2 G2 | [ce]2 z2 | z [ceg][ceg] z | z [Bfg][Bfg] z | z GAB | c2 z2 | z GAB | c2 z2 | z GAB | %176
 c2 cB | A2 AG | F2 FE | z2 DC | z/ G/^F/G/ F/G/ =F/G/ | E/G/E/G/ F/G/G/G/ | D/G/^F/G/ F/G/ =F/G/ | %183
 E/G/E/G/ F/G/ G/G/ | [G,Bd]2 [G,ce]2 | [G,Bd] z [G,ce] z | G,2 z2 | EG EG | EG EG | FGFA | %190
 EG E z | Ac A^c | Ad GB | [Cc] z [F,F] z | [G,E]2 [G,D] z | EG EG | EG EG | FGFA | EG E z | %199
 Ac A^c | [Dd]2 [=fg] z | [ce][Ff] [Ge][Af] | c2 z2 | Bd BG | A2 z2 | ^GB GE | F z z2 | EG EC | %208
 F z D2 | G2 E z | A2 ^G z | A z ^c z | d z z2 | ^G z B z | c2 z2 | _A2 AG | ^F4 | G2 GF | E4 | %219
 F2 FE | z4 | z4 | G/G/G/G/ G/G/G/G/ | G/G/G/G/ G/G/G/G/ | z/ G,/G,/G,/ G,/G,/G,/G,/ | %225
 G,/G,/G,/G,/ G,/G,/G,/G,/ | G,/G,/G,/G,/ G,/G,/G,/G,/ | G,2 z2 | z G,G,G, | [CE]2 z2 | z E,E,E, | %231
 [A,C]2 z2 | z [F,F][F,F] z | z [E,E][E,E] z | [F,^D]4 | E,2 E,2 | E,2 E,2 | E,2 E,2 | E,2 E,2 | %239
 E,2 E z | x4 | x4 | x4 | x4 | x4 | x4 | x4 | x4 | x4 | x4 | x4 | A,2 E,2 | A,/E/C/E/ A,2 | C2 D2 | %254
 EE, E z | D2 C2 | B,2 A,2 | D2 EE, | A,/E/C/E/ A,2 | E,4 | A,2 z2 | D2 E,2 | A,3 z | D2 E2 | %264
 F z z2 | [Dd=f]2 [EBd]E, | A,3 z | D2 E2 | F z z2 | [Gdf]3 z | [ce]3 z | [B^fa]4 | [^G=f]2 [Ae]2 | %273
 FD EE, | A,/A,/A,/A,/ A,/A,/A,/A,/ | A,/A,/A,/A,/ A,/A,/A,/A,/ | A,/A,/A,/A,/ A,/A,/A,/A,/ | %277
 A,/A,/A,/A,/ A,/A,/A,/A,/ | A,(A,/4B,/4C/4)D/4 EE, | A,!f!(A,/4B,/4C/4)D/4 EE, | A,2 A,2 | %281
 A,2 z2 |] %282
V:3
 x/ | A,8 | A,8 | A,8 | x8 | E,8 | E,8 | x8 | E,8 | x8 | x8 | x8 | x8 | x8 | x8 | x8 | x8 | x8 | %18
 x8 | x8 | x8 | x8 | x8 | x8 | x8 | C4 C4 | B,8 | A,8 | E,8 | A,8 | x8 | x8 | ^D4 D4 | x8 | x8 | %35
 x8 | E,2 E,2 E,2 E,2 | x8 |][M:2/4] x |: x4 | x4 | x4 | x4 | x4 | x4 | x4 |1 x4 :|2 x4 |: x4 | %49
 x4 | x4 | x4 | x4 | x4 | x4 | x4 :| x4 | x4 | x4 | x4 | x4 | x4 | x4 | x4 | A,4 | E,4 | A,4 | %67
 E,4 | A,4 | G4 | x4 | x4 | x4 | x4 | x4 | x4 | x4 | x4 | d2 ^c2 | d2 z2 | x4 | x4 | x4 | x4 | x4 | %85
 x4 | x4 | x4 | x4 | x4 | x4 | x4 | x4 | x4 | x4 | x4 | x4 | x4 | x4 | x4 | x4 | %101
 x2 (3z/ d/e/ (3z/ d/e/ | x2 (3z/ d/e/ (3z/ d/e/ | x2 (3z/ _B/c/ (3z/ B/c/ | %104
 x2 (3z/ _B/c/ (3z/ B/c/ | x4 | x4 | x4 | x4 | x4 | x4 | x4 | x4 | x4 | x4 | x4 | x4 | x4 | x4 | %119
 x4 | x4 | x4 | x4 | x4 | x4 | x4 | x4 | x4 | x4 | x4 | x4 | x4 | x4 | x4 | x4 | x4 | x4 | x4 | %138
 x4 | x4 | x4 | x4 | x4 | x4 | x4 | x4 | x4 | x4 | x4 | x4 | x28 | x16 | x4 | x4 | x4 | x4 | x4 | %157
 x4 | x4 | x4 | x4 | x4 | x4 | x4 | x4 | x4 | x4 | x4 | x4 | x4 | x4 | x4 | x4 | x4 | x4 | x4 | %176
 x4 | x4 | x4 | x4 | B,2 z G, | C2 B,C | G,2 z G, | C2 B,C | x4 | x4 | x4 | C4 | C4 | B,4 | C2 z2 | %191
 F2 A,2 | D2 G,2 | x4 | x4 | C4 | C4 | B,4 | C2 z2 | F2 A,2 | x4 | x4 | x4 | x4 | x4 | x4 | x4 | %207
 x4 | x4 | x4 | x4 | x4 | x4 | x4 | x4 | x4 | x4 | x4 | x4 | x4 | x4 | x4 | x4 | x4 | x4 | x4 | %226
 x4 | x4 | x4 | x4 | x4 | x4 | x4 | x4 | x4 | x4 | x4 | x4 | x4 | x4 | x4 | x4 | x4 | x4 | x4 | %245
 x4 | x4 | x4 | x4 | x4 | x4 | x4 | x4 | x4 | x4 | x4 | x4 | x4 | x4 | x4 | x4 | x4 | x4 | x4 | %264
 x4 | x4 | x4 | x4 | x4 | x4 | x4 | x4 | x4 | x4 | x4 | x4 | x4 | x4 | x4 | x4 | x4 | x4 |] %282

